X: 7327
T: Cliff's Edge
R: hornpipe
M: 4/4
K: Dmajor
|:F>G|A>dc>d A>F (3DEF|E>^DG<E B2 e>=d|c>de>d c>A (3GFE|F>^EF<G A2 (3FG^G|
A2 (3dcd A2 (3FDF|E>^DG<E B2- B>=d|c>eg>e c2 (3gfe|d2 (3DDD D2:|
|:c>d|^d>ec>A G>E (3gfe|^e>fd<A F2 (3agf|g2 (3ecA ^G>A (3=GFE|D>E^E<F d2 c>d|
^d>ec>A G2 g>e|^e>fd<A a2 b>a|1 e>^dg>e ^G>A (3=gfe|d2 (3DDD D2:|2 g>ec>A g>e (3cBA|d2 (3f^ef d2||

